X: 279
T:Regina celi letare / Resurrexit sicut dixit
N: Derived from Jos2502-Regina_celi_letare.krn
C: Josquin des Prez
%%abc-version 2.0
%%abcx-abcm2ps-target-version 5.9.1 (29 Sep 2008)
%%abc-creator hum2abc beta
%%abcx-conversion-date 2019/02/12 16:15:52
%%abc-edited-by Jesse Rodin
%%abc-edited-by Will Watson 14/07/2011
%%abcx-initial-encoding-date 2011/07/15/
%%humdrum-veritas 2342659029
%%humdrum-veritas-data 2774168274
%%linebreak <none>
%%barnumbers 0
L: 1/4
M: 2/1
Q: 1/2=120
%%staves [1 2 3 4]
V: 1 clef=treble
V: 2 clef=treble-8
V: 3 clef=treble-8
V: 4 clef=bass
K: F
[V:1] F8 | 
[V:2] z8 | 
[V:3] c8 | 
[V:4] F,8 | 
[V:1] G4F4 | 
[V:2] z8 | 
[V:3] d4c4 | 
[V:4] B,4A,4 | 
[V:1] G8- | 
[V:2] z8 | 
[V:3] d8 | 
[V:4] G,8 | 
[V:1] G8 | 
[V:2] c8 | 
[V:3] e8 | 
[V:4] C,8 | 
[V:1] G4A4- | 
[V:2] d4c4 | 
[V:3] z4f4- | 
[V:4] B,4F,4 | 
[V:1] A2GFG4 | 
[V:2] d8 | 
[V:3] f2e2d4 | 
[V:4] B,8 | 
[V:1] !fermata!A8 | 
[V:2] !fermata!e8 | 
[V:3] !fermata!c8 | 
[V:4] !fermata!A,8 | 
[V:1] z8 | 
[V:2] z4f4- | 
[V:3] B8 | 
[V:4] z8 | 
[V:1] z8 | 
[V:2] f4e4 | 
[V:3] A4G4 | 
[V:4] z8 | 
[V:1] B8 | 
[V:2] d3ef2g2 | 
[V:3] B6AG | 
[V:4] z8 | 
[V:1] A4G3F/E/ | 
[V:2] c3de2d2- | 
[V:3] F4G4- | 
[V:4] z4B,4- | 
[V:1] D4z2F2 | 
[V:2] d2cBc4 | 
[V:3] G4F4 | 
[V:4] B,4A,4 | 
[V:1] G2B4AG | 
[V:2] d8 | 
[V:3] B4G3A | 
[V:4] G,4B,4- | 
[V:1] F2G2A4 | 
[V:2] z4f4 | 
[V:3] B4c4- | 
[V:4] B,2A,G,F,4 | 
[V:1] G3F/E/D3E | 
[V:2] e2d4cB | 
[V:3] c2BAB4 | 
[V:4] G,8 | 
[V:1] F2G4F2- | 
[V:2] A2G2A2B2 | 
[V:3] c4F4 | 
[V:4] F,2E,2D,4 | 
[V:1] F2EDE4 | 
[V:2] c8- | 
[V:3] G8 | 
[V:4] C,8 | 
[V:1] F8- | 
[V:2] c8 | 
[V:3] F8 | 
[V:4] z4F,4- | 
[V:1] F8 | 
[V:2] z2c4B2 | 
[V:3] z4f4- | 
[V:4] F,2E,2D,4 | 
[V:1] z8 | 
[V:2] A2GABcde | 
[V:3] f2e2d3B | 
[V:4] C,4z2G,2 | 
[V:1] z8 | 
[V:2] f2g3ff2- | 
[V:3] c2d3cc2- | 
[V:4] A,2B,3A,A,2- | 
[V:1] z2B4A2 | 
[V:2] f2e2f2d2- | 
[V:3] c2B2c2f2- | 
[V:4] A,2G,2F,4 | 
[V:1] G6F2 | 
[V:2] dcc3=B/A/=B2 | 
[V:3] f2e2d4 | 
[V:4] G,8 | 
[V:1] E3DC4- | 
[V:2] G4z4 | 
[V:3] c3BAGA2- | 
[V:4] C,4z2F,2- | 
[V:1] C4F4- | 
[V:2] z4d4- | 
[V:3] A2G2A4 | 
[V:4] F,2E,2D,3C, | 
[V:1] F8- | 
[V:2] d8 | 
[V:3] B4z4 | 
[V:4] B,,4B,4- | 
[V:1] F4G4 | 
[V:2] f6e2 | 
[V:3] z4B4 | 
[V:4] B,2A,2G,4 | 
[V:1] A4F4 | 
[V:2] d2c2d4 | 
[V:3] A2F2A3B | 
[V:4] F,3E,D,4 | 
[V:1] G2A3GF2- | 
[V:2] e2c2d4 | 
[V:3] c4A2B2 | 
[V:4] C,2F,4B,,2 | 
[V:1] F2E2F4- | 
[V:2] c4c4 | 
[V:3] G4A4 | 
[V:4] C,4F,4- | 
[V:1] F4z4 | 
[V:2] z2F2c3B | 
[V:3] z4F4 | 
[V:4] F,8- | 
[V:1] F4c4- | 
[V:2] AGA4GF | 
[V:3] c4z4 | 
[V:4] F,4F,4 | 
[V:1] c4z2C2- | 
[V:2] f8 | 
[V:3] F8 | 
[V:4] C4z4 | 
[V:1] CDEFG3A | 
[V:2] e2c2e3f | 
[V:3] c4c4 | 
[V:4] z4C,4 | 
[V:1] Bcd3cc2- | 
[V:2] g4g4- | 
[V:3] d8- | 
[V:4] G,8 | 
[V:1] c2=B2c4- | 
[V:2] g2f2e2d2 | 
[V:3] d4c4 | 
[V:4] G,4A,4- | 
[V:1] c4z4 | 
[V:2] c4d2_e2- | 
[V:3] z4B4- | 
[V:4] A,4G,4- | 
[V:1] z8 | 
[V:2] e2d2c2B2 | 
[V:3] B2A2G2F2 | 
[V:4] G,2F,2E,2D,2 | 
[V:1] z4B4- | 
[V:2] c4d4- | 
[V:3] G4F2f2- | 
[V:4] _E,4B,,4- | 
[V:1] B2A2G2F2 | 
[V:2] d2c2B2A2 | 
[V:3] f2e2d2c2 | 
[V:4] B,,4z4 | 
[V:1] G4A4- | 
[V:2] B4A3B | 
[V:3] d4e4- | 
[V:4] z4C4- | 
[V:1] A8- | 
[V:2] c2d2e4 | 
[V:3] e4c4- | 
[V:4] C2B,2A,2G,2 | 
[V:1] A4z4 | 
[V:2] f8 | 
[V:3] c4A4 | 
[V:4] F,6E,D, | 
[V:1] z8 | 
[V:2] z4f4- | 
[V:3] c4d4- | 
[V:4] E,2F,2B,,4- | 
[V:1] z8 | 
[V:2] f4d4 | 
[V:3] d2c2B2G2 | 
[V:4] B,,4z4 | 
[V:1] z4B4- | 
[V:2] f4g4- | 
[V:3] A4G4 | 
[V:4] D,4_E,3F, | 
[V:1] B4G4 | 
[V:2] g2fedce2 | 
[V:3] z8 | 
[V:4] G,3A,B,2C2 | 
[V:1] B4c4- | 
[V:2] d4c4 | 
[V:3] g4e2g2 | 
[V:4] G,4C,4 | 
[V:1] c2B2A2G2 | 
[V:2] z4c3B | 
[V:3] a3gf2e2- | 
[V:4] F,6C,2 | 
[V:1] F4G4 | 
[V:2] AGA4G2 | 
[V:3] edd3^c/=B/^c2 | 
[V:4] D,2F,2E,4 | 
[V:1] F4z2A2- | 
[V:2] A4z2f2- | 
[V:3] d4z2c2- | 
[V:4] D,4F,4 | 
[V:1] A2G2A2F2 | 
[V:2] f2e3dd2- | 
[V:3] c2B3AA2- | 
[V:4] G,4F,2D,2 | 
[V:1] G4F2A2- | 
[V:2] d2c2d2f2- | 
[V:3] A2G2A2c2- | 
[V:4] E,4D,2F,2 | 
[V:1] AGG2A2F2 | 
[V:2] f2e2f2d2- | 
[V:3] c2B3AA2- | 
[V:4] G,4F,2D,2 | 
[V:1] G4F2F2- | 
[V:2] d2c2d4 | 
[V:3] A2G2A2B2 | 
[V:4] _E,4D,2B,,2 | 
[V:1] F2E2F4- | 
[V:2] c4d4- | 
[V:3] G4B4- | 
[V:4] C,4B,,4 | 
[V:1] F4z4 | 
[V:2] d4z2c2- | 
[V:3] B2A2G4 | 
[V:4] z2F,4E,2 | 
[V:1] z8 | 
[V:2] c2B2A2GA | 
[V:3] F2f4e2 | 
[V:4] D,4C,4 | 
[V:1] z8 | 
[V:2] Bcdef2g2- | 
[V:3] d3Bc2d2- | 
[V:4] z2G,2A,2B,2- | 
[V:1] z4z2B2- | 
[V:2] gff4e2 | 
[V:3] dcc4B2 | 
[V:4] B,2A,2G,4 | 
[V:1] B2A2G4- | 
[V:2] f2d3cc2- | 
[V:3] c2f4e2 | 
[V:4] F,4G,4- | 
[V:1] G2F2E3D | 
[V:2] cB/A/B2G4 | 
[V:3] d4c3B | 
[V:4] G,4C,4 | 
[V:1] C8 | 
[V:2] z8 | 
[V:3] AGA4G2 | 
[V:4] z2F,4E,2 | 
[V:1] F8- | 
[V:2] d8- | 
[V:3] A4B4 | 
[V:4] D,3C,B,,4 | 
[V:1] F8 | 
[V:2] d4f4- | 
[V:3] z8 | 
[V:4] B,6A,2 | 
[V:1] G4A4 | 
[V:2] f2e2d2c2 | 
[V:3] B4A2F2 | 
[V:4] G,4F,3E, | 
[V:1] F4G2A2- | 
[V:2] d4e2c2 | 
[V:3] A3Bc4 | 
[V:4] D,4C,2F,2- | 
[V:1] AGF4E2 | 
[V:2] d4c4 | 
[V:3] A2B2G4 | 
[V:4] F,2B,,2C,4 | 
[V:1] F16 ||  
[V:2] c16 ||  
[V:3] F16 ||  
[V:4] F,16 ||  
[V:1] B8 | 
[V:2] z8 | 
[V:3] z8 | 
[V:4] z8 | 
[V:1] c4d4- | 
[V:2] f8 | 
[V:3] z4B4- | 
[V:4] z8 | 
[V:1] d4c4- | 
[V:2] g4a4- | 
[V:3] B4c4 | 
[V:4] z4F,4- | 
[V:1] c2BAB4 | 
[V:2] a4g4- | 
[V:3] d8 | 
[V:4] F,4G,4 | 
[V:1] c4z2C2 | 
[V:2] g2fef4 | 
[V:3] c2c4BA | 
[V:4] A,8 | 
[V:1] D4D4 | 
[V:2] g4g4- | 
[V:3] B2c4=B2 | 
[V:4] G,8 | 
[V:1] E3FG2A2 | 
[V:2] g4c4 | 
[V:3] c6BA | 
[V:4] C,8 | 
[V:1] B2c4=B2 | 
[V:2] d8 | 
[V:3] G4g4- | 
[V:4] z4G,4 | 
[V:1] c8 | 
[V:2] c4z4 | 
[V:3] g4c4 | 
[V:4] C,4z2C2- | 
[V:1] z4B4 | 
[V:2] f8- | 
[V:3] d8 | 
[V:4] C2B,A,B,3A, | 
[V:1] A2c3BA2 | 
[V:2] f4e4 | 
[V:3] c8 | 
[V:4] F,4z2C2- | 
[V:1] G2F4E2 | 
[V:2] c2d4cB | 
[V:3] z4B4 | 
[V:4] C2F,2G,4 | 
[V:1] F8 | 
[V:2] A2B4A2 | 
[V:3] c8 | 
[V:4] F,8 | 
[V:1] z4F4- | 
[V:2] B4z4 | 
[V:3] d8 | 
[V:4] B,,8- | 
[V:1] F4G4 | 
[V:2] B8 | 
[V:3] d6e2 | 
[V:4] B,,4z4 | 
[V:1] A8 | 
[V:2] c4d4- | 
[V:3] f4fedc | 
[V:4] F,8 | 
[V:1] G6FE | 
[V:2] d4c4 | 
[V:3] B4z4 | 
[V:4] G,4A,4- | 
[V:1] F4G4- | 
[V:2] c6BA | 
[V:3] c4d4- | 
[V:4] A,4G,4- | 
[V:1] G4G4 | 
[V:2] B3A/B/c3d | 
[V:3] d4e4- | 
[V:4] G,4C,4- | 
[V:1] C2c4BA | 
[V:2] efg4fe | 
[V:3] e4d4 | 
[V:4] C,4G,4- | 
[V:1] BAGFE4 | 
[V:2] d4c3B | 
[V:3] g8 | 
[V:4] G,4C,4 | 
[V:1] z2c4BA | 
[V:2] A8 | 
[V:3] c4d4- | 
[V:4] F,8 | 
[V:1] B4A4- | 
[V:2] z4e4- | 
[V:3] d4c4- | 
[V:4] G,4A,4- | 
[V:1] A4B4- | 
[V:2] e2f2g4- | 
[V:3] c4B3c | 
[V:4] A,4G,4- | 
[V:1] B2A2G3F | 
[V:2] g2f2e3d | 
[V:3] d4c4- | 
[V:4] G,4C,4- | 
[V:1] G2A3GF2- | 
[V:2] e4A2B2 | 
[V:3] c4F4 | 
[V:4] C,4D,4 | 
[V:1] F2E2F4 | 
[V:2] c2c4B2 | 
[V:3] G4F4 | 
[V:4] C,4F,4- | 
[V:1] z8 | 
[V:2] A2G2A4 | 
[V:3] f6e2 | 
[V:4] F,2E,2D,2C,2 | 
[V:1] z4z2F2- | 
[V:2] B2c2d4 | 
[V:3] d2c2B2A2 | 
[V:4] B,,8 | 
[V:1] F2E2D2C2 | 
[V:2] B4z2f2- | 
[V:3] G4z2c2- | 
[V:4] z2B,4A,2 | 
[V:1] G4z4 | 
[V:2] f2e2d2c2- | 
[V:3] c2B2A2G2- | 
[V:4] G,4F,2E,2 | 
[V:1] z8 | 
[V:2] c2B2A2G2 | 
[V:3] G2F2c4- | 
[V:4] D,4C,4- | 
[V:1] z4B4- | 
[V:2] A4B4 | 
[V:3] c4f2e2 | 
[V:4] C,4B,,4- | 
[V:1] B2A2G3F | 
[V:2] z2f2e2f2- | 
[V:3] d4z2c2- | 
[V:4] B,,4C,4- | 
[V:1] G4A3F | 
[V:2] f2e2d2c2 | 
[V:3] c2B2A2F2 | 
[V:4] C,4F,4 | 
[V:1] F4G3F | 
[V:2] d6c2 | 
[V:3] B4G2A2 | 
[V:4] z2B,4A,2 | 
[V:1] G2A3FF2- | 
[V:2] e2d3cc2- | 
[V:3] B2f3ec2 | 
[V:4] G,2F,2A,4 | 
[V:1] F2E2!fermata!F4- | 
[V:2] c2B2!fermata!c4- | 
[V:3] d3c/B/!fermata!A4- | 
[V:4] G,4!fermata!F,4- | 
[V:1] F8 | 
[V:2] c8 | 
[V:3] A8 | 
[V:4] F,8 | 
[V:1] z4c4- | 
[V:2] z8 | 
[V:3] z8 | 
[V:4] C8 | 
[V:1] c4F4- | 
[V:2] z8 | 
[V:3] z8 | 
[V:4] F,8- | 
[V:1] F2G2A4 | 
[V:2] z8 | 
[V:3] f8 | 
[V:4] F,8 | 
[V:1] B8 | 
[V:2] g8 | 
[V:3] B2c2d2_e2- | 
[V:4] G,8 | 
[V:1] A4c4 | 
[V:2] c2d2e2f2- | 
[V:3] e2d2c4 | 
[V:4] A,8 | 
[V:1] F2G4A2 | 
[V:2] f2e2d2c2 | 
[V:3] B2G2z2f2 | 
[V:4] B,6A,2 | 
[V:1] B4A4 | 
[V:2] d2e2f4 | 
[V:3] B4c4 | 
[V:4] G,4F,4- | 
[V:1] F2G3FF2- | 
[V:2] z2B2B2A2 | 
[V:3] d2_e4d2 | 
[V:4] F,2_E,D,E,2F,2 | 
[V:1] F2E2D3C | 
[V:2] G4g4- | 
[V:3] c4B4- | 
[V:4] C,4G,4- | 
[V:1] D4C3D | 
[V:2] g8- | 
[V:3] B4_e3d | 
[V:4] G,4C,4- | 
[V:1] E2F2G2C2 | 
[V:2] g4c4- | 
[V:3] c3B/A/G2A2- | 
[V:4] C,2D,2E,2F,2- | 
[V:1] c4F4 | 
[V:2] c4d4 | 
[V:3] AGc4=B2 | 
[V:4] F,2E,2D,4 | 
[V:1] G4A4 | 
[V:2] e4f4 | 
[V:3] c4F2c2- | 
[V:4] C,4z2F,2 | 
[V:1] B4A2G2- | 
[V:2] e2d3cc2- | 
[V:3] c2B2c3B | 
[V:4] G,4F,2E,2 | 
[V:1] GFF4E2 | 
[V:2] c2B2c4 | 
[V:3] A2F2G4 | 
[V:4] F,2D,2C,4 | 
[V:1] F8- | 
[V:2] A8 | 
[V:3] F8 | 
[V:4] D,8 | 
[V:1] F4z2F2 | 
[V:2] z2B2B4 | 
[V:3] z2d2d3c | 
[V:4] B,,8 | 
[V:1] F4A4- | 
[V:2] d6c2 | 
[V:3] B3A/G/F4 | 
[V:4] z8 | 
[V:1] A2G2A2B2 | 
[V:2] d2e2f4- | 
[V:3] z8 | 
[V:4] z4F,4- | 
[V:1] c8 | 
[V:2] f4z4 | 
[V:3] c8 | 
[V:4] F,4A,4- | 
[V:1] z8 | 
[V:2] z8 | 
[V:3] e6d2 | 
[V:4] A,2G,2A,2B,2 | 
[V:1] c4B3A/G/ | 
[V:2] z2c2d4- | 
[V:3] e2f2g4 | 
[V:4] C2B,A,G,4 | 
[V:1] A2B3AA2- | 
[V:2] d4c3A | 
[V:3] f4e2c2 | 
[V:4] z8 | 
[V:1] A2G2A4- | 
[V:2] B4A4- | 
[V:3] d4z4 | 
[V:4] z4F,4- | 
[V:1] A4z4 | 
[V:2] A4z4 | 
[V:3] c8 | 
[V:4] F,4A,4- | 
[V:1] z8 | 
[V:2] z8 | 
[V:3] e6d2 | 
[V:4] A,2G,2A,2B,2 | 
[V:1] z8 | 
[V:2] z4B4- | 
[V:3] e2f2g2fe | 
[V:4] C2B,A,G,4 | 
[V:1] F8 | 
[V:2] B4d4- | 
[V:3] d4z4 | 
[V:4] z8 | 
[V:1] A6G2 | 
[V:2] d2c2d2e2 | 
[V:3] z8 | 
[V:4] z8 | 
[V:1] A2B2c4 | 
[V:2] f2edc4 | 
[V:3] z4f4 | 
[V:4] F,8 | 
[V:1] z8 | 
[V:2] z4f4 | 
[V:3] d2e3dd2- | 
[V:4] G,4F,2D,2 | 
[V:1] z2G2A2B2- | 
[V:2] g4f2d2 | 
[V:3] d2^c2d4 | 
[V:4] E,4D,4 | 
[V:1] BAA4G2 | 
[V:2] e2f4e2 | 
[V:3] G2c4B2 | 
[V:4] z2F,2G,4 | 
[V:1] A4z2c2- | 
[V:2] f4z2g2- | 
[V:3] c2f4e2 | 
[V:4] F,2D,2E,3F, | 
[V:1] c2B2A2G2- | 
[V:2] g2f2e3d/c/ | 
[V:3] d4c4 | 
[V:4] G,4C,4 | 
[V:1] GFF4E2 | 
[V:2] d2c2g4 | 
[V:3] B2A2G4 | 
[V:4] z2C4B,2 | 
[V:1] D8 | 
[V:2] z8 | 
[V:3] F2B3AA2- | 
[V:4] A,2G,3F,F,2- | 
[V:1] C4z2c2- | 
[V:2] z4z2g2- | 
[V:3] A2G2d2e2 | 
[V:4] F,2E,2D,2C,2 | 
[V:1] c2B2A2G2- | 
[V:2] g2f2e3d | 
[V:3] d4z2c2- | 
[V:4] G,4C,3D, | 
[V:1] GFF4E2 | 
[V:2] c8 | 
[V:3] cBA2G4 | 
[V:4] E,2F,2C,4 | 
[V:1] F8 | 
[V:2] A8 | 
[V:3] F8 | 
[V:4] z2D,4F,2- | 
[V:1] z8 | 
[V:2] z4d2f2 | 
[V:3] z2G2B2A2 | 
[V:4] F,2E,2D,4 | 
[V:1] G2B2A2G2 | 
[V:2] e2d2f2e2 | 
[V:3] G4z4 | 
[V:4] z4z2G,2 | 
[V:1] z4G2B2 | 
[V:2] d2c2z2d2 | 
[V:3] d2f2e2d2- | 
[V:4] B,2A,2G,4 | 
[V:1] A2G2B2A2 | 
[V:2] f2e2d2f2 | 
[V:3] d2G4F2 | 
[V:4] z8 | 
[V:1] G2F2G4 | 
[V:2] e2d2c4- | 
[V:3] c2d2e4- | 
[V:4] z4C,4- | 
[V:1] G2A3GF2- | 
[V:2] c2e2d4 | 
[V:3] e2c2A2B2 | 
[V:4] C,4D,2B,,2 | 
[V:1] F2E2F4- | 
[V:2] c4A4- | 
[V:3] G4F4- | 
[V:4] C,4z2D,2- | 
[V:1] F4z4 | 
[V:2] A4z4 | 
[V:3] F4z2G2 | 
[V:4] D,2F,4E,2 | 
[V:1] z4G2B2 | 
[V:2] d2f2e2d2 | 
[V:3] B2A2G4 | 
[V:4] D,4z4 | 
[V:1] A2G2z4 | 
[V:2] f2e2d2c2 | 
[V:3] z4d2f2 | 
[V:4] z2G,2B,2A,2 | 
[V:1] G2B2A2G2 | 
[V:2] z2d2f2e2 | 
[V:3] e2d4G2- | 
[V:4] G,4z4 | 
[V:1] B2A2G2F2 | 
[V:2] d2f2e2d2 | 
[V:3] G2F2c2d2 | 
[V:4] z8 | 
[V:1] G4G2A2- | 
[V:2] c6e2 | 
[V:3] e6c2 | 
[V:4] C,8 | 
[V:1] AGF4E2 | 
[V:2] d4c4 | 
[V:3] A2B2G4 | 
[V:4] D,2B,,2C,4 | 
[V:1] F16 |]  
[V:2] c16 |]  
[V:3] F16 |]  
[V:4] F,16 |]  



